X: 1
T: Mini Minor
R: slip jig
M: 9/8
L: 1/8
K: Amaj
|:"F#m" ~f3 fec BAF|"Bm" ~B3 BAB cBA|"D" ~B3 BAB cBA|"E" ~B3 BAE FAE|
"F#m" ~f2 a fec BAF|"Bm" ~B3 BAB cBA|"D" ~B3 BAB cBA|"E" ~B3 BAE F2 z:|
|:"F#m" c2 F FEF FBc|"E" B2 E EBE EFE|"D" c2 F FEF F(B/c/d)|"C#m" e3 edc Bcd|
"Bm" c2 F FEF FBA|"C#m" B2 E EBE EFE|"D" c2 F FEF F(B/c/d)|e3 edc "E"Bcd:|

